X: 0713
T: COAL BLACK ROSE
B: Oliver Ditson "The Boston Collection of Instrumental Music" 1910 p.71 #3
F: http://conquest.imslp.info/files/imglnks/usimg/8/8f/IMSLP175643-PMLP309456-bostoncollection00bost_bw.pdf
M: 2/4
L: 1/8
K: C
[|\
eg fa | eg d2 | e/e/e/e/ ff | ed c2 |\
eg fa | eg d2 | e/e/e/e/ ff | ed c2 |
e2 f>f | ed cd | e/e/e/e/ ff/f/ | ed c2 |\
e2 f>f | edcz | c'/b/a/g/ f/e/d/c/ | GA/B/ c2 |]

%%sep 1 1 500
%%sep 1 1 500
